X: 9
T: High Clouds
C: David A. Kaynor 1980
%D:1980
R: waltz
S: Fiddle Hell Online 2020-11-05
Z: 2020 John Chambers <jc:trillian.mit.edu>
M: 3/4
L: 1/8
K: G
D2 |\
"G"G3 F GA | Bd3 D2 | "C"E4 ED | EG3 FE | "G"D2 G2 A2 |\
"G/B"Bd3 c2 |1 "Am"B3 A G2 | "D"A4 :|2 "D7"B3 G A2 | "G"G3 |]
A "D"Bc |\
"G"d3 B GD | "C"EG3 E2 | "D"D3 E DC | "G"B,4 Bc |\
"G"d2 B3 A | "Em"G2 F2 G2 | "Am"A3 G AB | "D"A4 ||
Bc |\
"G"d3 B GD | "C"EG3 E2 | "D"D3 E DC | "Em"B,2 C2 D2 |\
"Am"E3 FGB | "D"A4 G2 | "G"G6- | G4 |]


